X: 1523
T: Andy McGann's
R: jig
M: 6/8
K: Gmajor
|:GFG BAB|GBd g2 g|age dBG|BdB AGD|
GFG BAB|GBd g2 g|age dBd|cAF G2 z:|
|:gfg aga|bge dBd|g2 e dBG|FGA d2 z|
def gbg|age dBA|BAB GAB|AGF G2 z:|

